icons/sort-asc-24.svg

<svg xmlns="http://www.w3.org/2000/svg" width="24" height="24" viewBox="0 0 24 24"><path d="M18.5 17.25a.75.75 0 01-1.5 0V7.56l-2.22 2.22a.75.75 0 11-1.06-1.06l3.5-3.5a.75.75 0 011.06 0l3.5 3.5a.75.75 0 01-1.06 1.06L18.5 7.56v9.69zm-15.75.25a.75.75 0 010-1.5h9.5a.75.75 0 010 1.5h-9.5zm0-5a.75.75 0 010-1.5h5.5a.75.75 0 010 1.5h-5.5zm0-5a.75.75 0 010-1.5h3.5a.75.75 0 010 1.5h-3.5z"/></svg>

<svg xmlns="http://www.w3.org/2000/svg" width="24" height="24" viewBox="0 0 24 24">
  <defs/>
  <path d="M18.5,17.25 A0.75 0.75 0 0 1 17,17.25 L17,7.56 L14.78,9.78 A0.75 0.75 0 1 1 13.72,8.72 L17.22,5.22 A0.75 0.75 0 0 1 18.28,5.22 L21.78,8.72 A0.75 0.75 0 0 1 20.72,9.78 L18.5,7.56 L18.5,17.25 Z M2.75,17.5 A0.75 0.75 0 0 1 2.75,16 L12.25,16 A0.75 0.75 0 0 1 12.25,17.5 L2.75,17.5 Z M2.75,12.5 A0.75 0.75 0 0 1 2.75,11 L8.25,11 A0.75 0.75 0 0 1 8.25,12.5 L2.75,12.5 Z M2.75,7.5 A0.75 0.75 0 0 1 2.75,6 L6.25,6 A0.75 0.75 0 0 1 6.25,7.5 L2.75,7.5 Z"/>
</svg>
